X: 184
T: Liang xianghao
L: 1/8
M: 2/4
K: Bb
d'2b c' [I:setbarnb 1]| 
f'2b g | 
d'b2c'/ d'/ | 
b a/ g/f2 | 
d'b2c' | 
f b a g | 
f g g f/ d/ | 
f4 |]

@@@ Tune index: 9058
